X:4
T:Transition: Kalyana / The Torn Jacket
R:Jig
M:6/8
Q:3/8=90
K:D
|: F2d cAF | A2B AFE | F2d cAd | cAd edc |
   F2d cAF | A2B AFE | Fdd dcd |1 efd cAG :|2 efd cBA
|: e2e ede | f2d dcd | e2e ede | fga fed |
   e2e ede | f2d fga | g2e edB |1 d2e dBd :|2 d2e dBG |
%
%R:reel
M:2/2
Q:1/2=90
|:F3A d2 ed|cAAB cdec|FEFA d2 ed|cAGE EDDE|
FEFA d2 ed|cAAB cdec|dcde f2 ed|cAGE EDD2:|
% B1
|: FAdf a2 ab|g2 gf gfed|cAA2 cdef|gfed cAGE|
| FAdf a2 ab|g2 gf gfef|gaba gfed|cAGE EDD2 :|

